!!!OTL: ES WOLLT EIN MAEDL WOL FRUEH AUFSTEHN
!!!ARE: Europa, Mitteleuropa, Oesterreich
!!!SCT: E0121
!!!YEM: Copyright 1995, estate of Helmut Schaffrath.
**kern
*ICvox
*Ivox
*M2/4
*k[f#]
*G:
{8d
=1
8g
8g
16g
16a
16b
16g
=2
8a
8f#
8d}
{8d
=3
8g
8g
8a
8dd
=4
4b
8r}
{16g
16a
=5
8b
8g
8b
8g
=6
8cc
8b
4a}
=7
{8f#
8a
8d
8cc
=8
8b
8a
8g}
{8d
=9
8b
8b
8a
8a
=10
4g
8r}
==
!!!AGN: erzaehlendes Volks - Lied, Schalk -, Schelmen - Lied, Liebe     Ballade ?
!!!ONB: ESAC (Essen Associative Code) Database: ERK1
!!!AMT: simple duple
!!!AIN: vox
!!!EED: Helmut Schaffrath
!!!EEV: 1.0
*-
